client/public/assets/icons/utility/muted.svg

<?xml version="1.0"?><svg xmlns="http://www.w3.org/2000/svg" width="52" height="52" viewBox="0 0 52 52"><path fill="#fff" d="m48.5 5.6l-2.1-2.1c-0.6-0.6-1.7-0.5-2.4 0.3l-10 10v-3.9c0-4.4-3.5-7.9-7.9-7.9h-0.2c-4.4 0-7.9 3.5-7.9 7.9v14.5c0 1.5 0.4 3 1.2 4.2l-3.5 3.5c-1.7-2.1-2.7-4.8-2.7-7.7v-4c0-1.4-1.1-2.4-2.5-2.4s-2.5 1-2.5 2.4v4c0 4.3 1.6 8.2 4.2 11.2l-8.4 8.4c-0.7 0.7-0.8 1.8-0.3 2.4l2.1 2.1c0.6 0.6 1.7 0.5 2.4-0.3l40.2-40.2c0.8-0.7 0.9-1.8 0.3-2.4z m-9.5 17.6v1.2c0 7-5.8 12.8-13 12.8h-0.9l-3.9 4.1c0.8 0.2 1.8 0.4 2.8 0.6v3.1h-4.5c-1.4 0-2.5 1.1-2.5 2.5s1.1 2.5 2.5 2.5h13.1c1.4 0 2.5-1.1 2.5-2.5s-1.2-2.5-2.6-2.5h-4.5v-3.2c9-1.2 16-8.6 16-17.4v-4c0-0.6-0.3-1.2-0.6-1.6l-4.4 4.4z"></path></svg>

<?xml version="1.0" encoding="utf-8"?>
<!-- Generator: Adobe Illustrator 18.1.1, SVG Export Plug-In . SVG Version: 6.00 Build 0)  -->
<svg version="1.1" id="Layer_1" xmlns="http://www.w3.org/2000/svg" xmlns:xlink="http://www.w3.org/1999/xlink" x="0px" y="0px"
	 width="52px" height="52px" viewBox="0 0 52 52" enable-background="new 0 0 52 52" xml:space="preserve">
<path fill="#FFFFFF" d="M48.5,5.6l-2.1-2.1C45.8,2.9,44.7,3,44,3.8l-10,10V9.9C34,5.5,30.5,2,26.1,2h-0.2C21.5,2,18,5.5,18,9.9v14.5
	c0,1.5,0.4,3,1.2,4.2l-3.5,3.5C14,30,13,27.3,13,24.4v-4c0-1.4-1.1-2.4-2.5-2.4C9.1,18,8,19,8,20.4v4c0,4.3,1.6,8.2,4.2,11.2L3.8,44
	c-0.7,0.7-0.8,1.8-0.3,2.4l2.1,2.1C6.2,49.1,7.3,49,8,48.2L48.2,8C49,7.3,49.1,6.2,48.5,5.6z"/>
<path fill="#FFFFFF" d="M39,23.2v1.2c0,7-5.8,12.8-13,12.8c-0.3,0-0.6,0-0.9,0l-3.9,4.1c0.8,0.2,1.8,0.4,2.8,0.6V45h-4.5
	c-1.4,0-2.5,1.1-2.5,2.5s1.1,2.5,2.5,2.5h13.1c1.4,0,2.5-1.1,2.5-2.5S33.9,45,32.5,45H28v-3.2c9-1.2,16-8.6,16-17.4v-4
	c0-0.6-0.3-1.2-0.6-1.6L39,23.2z"/>
</svg>
